X:1
T:James Gibb editions
T:Now let us go - Elsbeth
T:#
%%score [ 1 2 3 ]
L:1/8
Q:1/4=120
M:2/2
K:C
V:1 treble nm="Soprano I" snm="S I"
V:2 treble nm="Soprano II" snm="S II"
V:3 treble nm="Alto" snm="A"
V:1
"^Now let us go and bid the morning""^Thomas Elsbeth\n(?-1624)" z8 | d4 c2 B2 | A2 d2 e2 d2 | %3
w: |Now let us|go and bid the|
 ^c4 d4 | d6 B2 | d4 z2 g2 | e3 e c4 | z2 f2 d2 e2 | (d2 cB A2) B2 | A8 | B8 | z8 | d4 c2 B2 | %13
w: morn- ing:|Bright- est|day! Chase|cares a- way!|Bring ro- ses|sweet * * * to|soothe|us!||Now let us|
 A2 d2 e2 d2 | ^c4 d4 | d6 B2 | d4 z2 g2 | e3 e c4 | z2 f2 d2 e2 | (d2 cB A2) B2 | A8 | B8 | %22
w: go and bid the|cu- ckoo:|Pret- ty|bird! Re-|peat thy word!|Re- peat thy|song * * * to|cheer|us!|
 z4 z2 G2 | A2 B2 c2 d2 | (cB) A2 (ed) c2 | B2 B2 A2 A2 | c2 c2 G4 | z2 d2 f2 f2 | c2 c2 e2 e2 | %29
w: Swift|as the night turns|in\- * to bright\- * est|day, Will for- tune|turn my way,|All glad- some|now our prai- ses|
 d8 | z2 d2 g2 ^f2 | g2 d2 B2 A2 | B4 A4 | B2 A2 B2 d2 | g2 ^f2 g2 d2 | B2 A2 B4 | A4 (cB cd | %37
w: sing,|All glad- some|now our prai- ses|sing. Full|plea- sure bring, All|glad- some now our|prai- ses sing,|Full plea\- * * *|
 ed) c2 B2 B2 | e2 d2 c2 B2 | (A2 B2 A2) A2 | B8 |] %41
w: * * sure bring, All|glad- some sing, Full|plea\- * * sure|bring!|
V:2
 G4 F2 E2 | D2 G2 A2 G2 | ^F4 G2 G2 | A4 B2 B2- | B2 A2 B2 d2 | B3 B G4 | z2 c2 A3 A | %7
w: Now let us|go and bid the|morn- ing, now|let us bid|* the morn- ing:|Bright- est day!|Chase cares a-|
 F2 A2 _B2 (AG) | (FG AG ^F2 G2- | G2) (^FE) F4 | G8 | G4 F2 E2 | D2 G2 A2 G2 | ^F4 G2 G2 | %14
w: way! Bring ro- ses *|sweet * * * * *|* to * soothe|us!|Now let us|go and bid the|cu- ckoo, Now|
 A4 B2 B2- | B2 A2 B2 d2 | B3 B G4 | z2 c2 A3 A | F2 A2 _B2 (AG) | (FG AG ^F2) (G2- | G2 ^FE) F4 | %21
w: let us bid|* the cu- ckoo|Pret- ty bird!|Re- peat thy|word! Re- peat thy *|song * * * * to|* * * cheer|
 G8 | C4 D2 E2 | F2 G2 (FE) D2 | E2 F2 G2 A2 | D2 G2 ^F2 F2 | A4 z2 E2 | G2 G2 D4 | z2 A2 c2 c2 | %29
w: us!|Swift as the|night turns in\- * to|bright- est day, Will|for- tune turn my|way, All|glad- some now,|All glad- some|
 B2 B2 A2 B2 | A2 ^F2 G2 A2 | B2 A2 G2 ^F2 | G4 z2 D2 | G2 ^F2 G2 A2 | B2 A2 B2 A2 | G2 ^F2 G4 | %36
w: now our prai- ses|sing, All glad- some|now our prai- ses|sing, All|glad- some now our|prai- ses sing, Full|plea- sure bring,|
 ^F4 A4 | (G3 ^F) G4 | G4 A2 (DE) | ^F2 G2 F2 F2 | G8 |] %41
w: Full plea-|sure * bring,|All glad- some *|sing, Full plea- sure|bring!|
V:3
 z8 | z8 | D4 C2 B,2 | A,4 G,2 (G2- | G2 ^F2) G4 | z2 G2 E3 E | C4 z2 F2 | D3 D _B,2 C2 | D8- | %9
w: ||Now let us|bid the morn\-|* * ing:|Chase cares a-|way! Bring|ro- ses to a-|muse|
 D8 | G,8 | z8 | z8 | D4 C2 B,2 | A,4 G,2 (G2- | G2 ^F2) G4 | z2 G2 E3 E | C4 z2 F2 | %18
w: |us!|||Now let us|bid the cu\-|* * ckoo:|Re- peat thy|word! Re-|
 D3 D _B,2 C2 | D8- | D8 | G,8 | z8 | z2 G,2 A,2 B,2 | C2 D2 (CB,) A,2 | G,2 G,2 D4 | %26
w: peat thy song to|cheer||us!||Swift as the|night turns in\- * to|bright- est day,|
 z2 A,2 C2 C2 | G,4 z2 D2 | F2 F2 C4 | G4 ^F2 G2 | D4 z2 D2 | G2 ^F2 G2 D2 | G,2 G,2 D4 | %33
w: to bright- est|day, All|glad- some now|our prai- ses|sing, All|glad- some now our|prai- ses sing,|
 z2 D2 G2 ^F2 | G2 D2 G2 ^F2 | G2 D2 G,2 G,2 | D4 A,4 | (CB,) (CD) E3 D | C2 B,2 A,2 G,2 | D6 D2 | %40
w: All glad- some|now our prai- ses|sing, Full plea- sure|bring, Full|plea\- * sure * bring, All|glad- some sing, Full|plea- sure|
 G,8 |] %41
w: bring!|

